X: 670
T: Da suanzao
L: 1/8
M: 2/4
K: A
B2F A [I:setbarnb 1]| 
B2F A | 
B A F A | 
B A B A | 
B4 | 
A B/ B/ e c | 
B4 | 
A> B G F | 
E D z F | 
E Dz2 | 
F F/ F/ B G/ G/ | 
F3E | 
D E F D | 
B,4 |]

@@@ Tune index: 9544
